ui/public/imgs/providers/dynadot.svg

<svg xmlns="http://www.w3.org/2000/svg" width="200" height="200" viewBox="0 0 256 256"><path fill="#041241" stroke="#041241" d="M0 0h256v256H0zm152 49-7 2-16 8-55 30 14 26v2q-13 4-22 12l-11 13-4 9-2 10q0 18 8 29 10 14 31 18h13l10-3 69-36-14-29 22-11q13-9 17-27V85q-2-11-8-18-8-11-20-16-10-4-25-2Z"/><path fill="#041241" stroke="#041241" d="M155.5 65q21.2-1.2 28.5 11.5 5.5 6.5 5 19l-3 10-5 7.5-22.5 13-7.5-14.5-4.5-5.5-13-7h-11l-19 9L97 96.5V94z"/><path fill="#041241" stroke="#041241" d="M126.5 115q6.9.6 10.5 4.5 4.3 3.2 3 12l-5.5 7.5q-3 3-10 2l-6.5-3-3-5.5v-9l5.5-6.5z"/><path fill="#041241" stroke="#041241" d="M95.5 131q2.3-.7 1.5 1.5 4.6 12.9 14.5 20.5 6.7 6.3 22 4l17-9 7.5 14-54.5 28q-6.3 2.7-17 1-9.9-3.1-15.5-10.5-6.9-7.1-5-23 2.6-10.9 10.5-16.5z"/><path fill="#f9fbfc" stroke="#f9fbfc" d="M151.5 49q15.5-2 25 2 12.9 5.1 20.5 15.5 6 7 8 18v17q-4.4 18.1-17.5 27.5L166 140l14 28.5-69.5 36.5-10 3h-13q-20.6-3.9-30.5-18.5-8.2-10.3-8-29l2-10 4-9L65.5 129q9.7-8 22.5-12v-2.5l-14-26L128.5 59l16-8zm4.5 16L97 94v3l7 11 19-9h11l13 7 4 6 8 14 22-13 5-7 3-10q1-13-5-19-7-13-28-12Zm-29 50-6 2-6 7v9l3 5 7 3q7 1 10-2l5-7q1-9-3-12-4-4-10-5Zm-31 16-19 10q-8 6-11 17-2 15 5 23 6 7 16 10 10 2 17-1l54-28-7-14-17 9q-16 2-22-4-10-8-15-20 1-3-1-2Z"/></svg>

<svg xmlns="http://www.w3.org/2000/svg" version="1.1" viewBox="0 0 256 256" width="200" height="200"><path fill="rgb(4,18,65)" stroke="rgb(4,18,65)" stroke-width="1" opacity="1" d="M 0 0 L 256 0 L 256 256 L 0 256 L 0 0 Z M 152 49 L 145 51 L 129 59 L 74 89 L 88 115 L 88 117 Q 75 121 66 129 L 55 142 L 51 151 L 49 161 Q 49 179 57 190 Q 67 204 88 208 L 101 208 L 111 205 L 180 169 L 166 140 L 188 129 Q 201 120 205 102 L 205 85 Q 203 74 197 67 Q 189 56 177 51 Q 167 47 152 49 Z " /><path fill="rgb(4,18,65)" stroke="rgb(4,18,65)" stroke-width="1" opacity="1" d="M 155.5 65 Q 176.7 63.8 184 76.5 Q 189.5 83 189 95.5 L 186 105.5 L 181 113 L 158.5 126 L 151 111.5 L 146.5 106 L 133.5 99 L 122.5 99 L 103.5 108 L 97 96.5 L 97 94 L 155.5 65 Z " /><path fill="rgb(4,18,65)" stroke="rgb(4,18,65)" stroke-width="1" opacity="1" d="M 126.5 115 Q 133.4 115.6 137 119.5 Q 141.3 122.7 140 131.5 L 134.5 139 Q 131.5 142 124.5 141 L 118 138 L 115 132.5 L 115 123.5 L 120.5 117 L 126.5 115 Z " /><path fill="rgb(4,18,65)" stroke="rgb(4,18,65)" stroke-width="1" opacity="1" d="M 95.5 131 Q 97.8 130.3 97 132.5 Q 101.6 145.4 111.5 153 Q 118.2 159.3 133.5 157 L 150.5 148 L 158 162 L 103.5 190 Q 97.2 192.7 86.5 191 Q 76.6 187.9 71 180.5 Q 64.1 173.4 66 157.5 Q 68.6 146.6 76.5 141 L 95.5 131 Z " /><path fill="rgb(249,251,252)" stroke="rgb(249,251,252)" stroke-width="1" opacity="1" d="M 151.5 49 Q 167 47 176.5 51 Q 189.4 56.1 197 66.5 Q 203 73.5 205 84.5 L 205 101.5 Q 200.6 119.6 187.5 129 L 166 140 L 180 168.5 L 110.5 205 L 100.5 208 L 87.5 208 Q 66.9 204.1 57 189.5 Q 48.8 179.2 49 160.5 L 51 150.5 L 55 141.5 L 65.5 129 Q 75.2 121 88 117 L 88 114.5 L 74 88.5 L 128.5 59 L 144.5 51 L 151.5 49 Z M 156 65 L 97 94 L 97 97 L 104 108 L 123 99 L 134 99 L 147 106 L 151 112 L 159 126 L 181 113 L 186 106 L 189 96 Q 190 83 184 77 Q 177 64 156 65 Z M 127 115 L 121 117 L 115 124 L 115 133 L 118 138 L 125 141 Q 132 142 135 139 L 140 132 Q 141 123 137 120 Q 133 116 127 115 Z M 96 131 L 77 141 Q 69 147 66 158 Q 64 173 71 181 Q 77 188 87 191 Q 97 193 104 190 L 158 162 L 151 148 L 134 157 Q 118 159 112 153 Q 102 145 97 133 Q 98 130 96 131 Z " /></svg>
